X:=3
T:Bemsha Swing
C:Thelonius Monk
L:1/8
M:C
I:linebreak $
K:C
G2 ||"C" c2 z2"Am" z4 |"Ab" Gc_B_A"Db7" GG F2 |"C" EE B,2"Eb6" C2 z2 |$"D7" z4"Db7" z2 G2 |
"C" c2 z2"Am" z4 |"Ab" Gc_B_A"Db7" GG F2 |"C" EE B,2"Am" C2 z2 |$"Gm" z4"Gb7" z2 c2 |
"F" f2 z2"Dm" z4 |"Db" cf_e_d"Gb7" cc _B2 |$"F" AA E2"Ab" F2 z2 |"G7" z4"Db7" z2 G2 |
"C" c2 z2"Am" z4 |$"Ab" Gc_B_A"Db7" GG F2 |"C" EE B,2"Eb6" C2 z2 |"D7" z4"Db7" z4 |"C6" z8 |]


